X: 1
T:Haul away the Hawser
M:4/4
O:England
A:North-West
R:Reel
K:G
D|\
G2BG BddB| c2ec egg2| G2BG Bddg| edcB A2G:|\
g|\
g2bg afed| edef gdBG| g2bg afed| edef g3a|\
bagf gfed| edef gdBG| cBcd efge| dBgB A2G:|
